symbols/be/PVO-{150}.svg

<?xml version="1.0" encoding="UTF-8" standalone="no"?>
<!-- Initially created with Inkscape, optimized by hand -->

<svg
   version="1.1"
   width="20"
   height="14.096813"
   id="svg1"
   xmlns="http://www.w3.org/2000/svg"
   xmlns:svg="http://www.w3.org/2000/svg">
  <defs
     id="defs1" />
  <rect
     x="0"
     y="0"
     width="20"
     height="14.096812"
     style="fill:#ffffff;stroke:none;stroke-width:0.0590319"
     id="Fond" />
  <circle
     cx="10"
     cy="7.0484047"
     r="5.8441563"
     style="fill:none;stroke:#000000;stroke-width:0.590319"
     id="circle1" />
  <path
     d="M 8.8460704,10.243084 V 3.8537296 c 0,-0.106667 -0.032,-0.192 -0.106667,-0.266667 -0.064,-0.07467 -0.362668,-0.149334 -0.501335,-0.01067 l -1.429338,1.429338 c -0.149334,0.149334 -0.096,0.426668 0.01067,0.533335 0.096,0.106667 0.352001,0.128 0.490668,-0.01067 l 0.821336,-0.832003 v 5.5573514 c 0,0.192001 0.170667,0.352001 0.362668,0.352001 0.192001,0 0.352001,-0.16 0.352001,-0.362667 z M 13.283407,3.8537296 c 0,-0.202667 -0.16,-0.362668 -0.352001,-0.362668 h -2.848009 c -0.096,0 -0.1706666,0.02133 -0.2346666,0.08533 -0.08533,0.08533 -0.117334,0.16 -0.117334,0.277334 v 2.837342 c 0,0.117334 0.032,0.192001 0.117334,0.277335 0.064,0.064 0.138667,0.08533 0.2346666,0.08533 h 1.408005 c 0.298667,0 0.501334,0.064 0.725335,0.266668 0.245334,0.224 0.341335,0.458668 0.341335,0.800002 v 0.704003 c 0,0.309334 -0.064,0.512001 -0.277335,0.746669 -0.181334,0.192 -0.458668,0.320001 -0.789335,0.320001 h -1.429338 c -0.1920006,0 -0.3520006,0.1706674 -0.3520006,0.3626674 0,0.192001 0.16,0.352001 0.3520006,0.352001 h 1.429338 c 0.554668,0 1.045336,-0.224 1.333337,-0.565335 0.309334,-0.3413344 0.437335,-0.7040024 0.437335,-1.2160034 v -0.704003 c 0,-0.597335 -0.266668,-1.109337 -0.618669,-1.397337 -0.298667,-0.245335 -0.842669,-0.384002 -1.152003,-0.384002 h -1.045337 v -2.13334 h 2.485341 c 0.192001,0 0.352001,-0.138667 0.352001,-0.352001 z"
     id="text1"
     style="font-size:10.6667px;font-family:Isonorm;-inkscape-font-specification:'Isonorm, Normal';fill-rule:evenodd;stroke-width:0.0944511"
     aria-label="15" />
</svg>

<?xml version="1.0" encoding="UTF-8"?>
<svg xmlns="http://www.w3.org/2000/svg" xmlns:xlink="http://www.w3.org/1999/xlink" width="20" height="14.096813" viewBox="0 0 20 14.096813">
<path fill-rule="nonzero" fill="rgb(100%, 100%, 100%)" fill-opacity="1" d="M 0 0 L 20 0 L 20 14.097656 L 0 14.097656 Z M 0 0 "/>
<path fill="none" stroke-width="0.590319" stroke-linecap="butt" stroke-linejoin="miter" stroke="rgb(0%, 0%, 0%)" stroke-opacity="1" stroke-miterlimit="4" d="M 15.84375 7.046875 C 15.84375 10.277344 13.226562 12.890625 10 12.890625 C 6.773438 12.890625 4.15625 10.277344 4.15625 7.046875 C 4.15625 3.820312 6.773438 1.203125 10 1.203125 C 13.226562 1.203125 15.84375 3.820312 15.84375 7.046875 Z M 15.84375 7.046875 "/>
<path fill-rule="evenodd" fill="rgb(0%, 0%, 0%)" fill-opacity="1" d="M 8.847656 10.242188 L 8.847656 3.855469 C 8.847656 3.746094 8.8125 3.660156 8.738281 3.585938 C 8.675781 3.511719 8.375 3.4375 8.238281 3.578125 L 6.808594 5.003906 C 6.660156 5.15625 6.710938 5.433594 6.820312 5.539062 C 6.914062 5.644531 7.171875 5.667969 7.308594 5.527344 L 8.132812 4.695312 L 8.132812 10.253906 C 8.132812 10.445312 8.300781 10.605469 8.492188 10.605469 C 8.6875 10.605469 8.847656 10.445312 8.847656 10.242188 Z M 13.285156 3.855469 C 13.285156 3.652344 13.125 3.492188 12.929688 3.492188 L 10.082031 3.492188 C 9.988281 3.492188 9.914062 3.511719 9.847656 3.578125 C 9.761719 3.660156 9.730469 3.738281 9.730469 3.855469 L 9.730469 6.691406 C 9.730469 6.808594 9.761719 6.882812 9.847656 6.96875 C 9.914062 7.03125 9.988281 7.054688 10.082031 7.054688 L 11.492188 7.054688 C 11.789062 7.054688 11.992188 7.117188 12.214844 7.320312 C 12.460938 7.542969 12.558594 7.777344 12.558594 8.121094 L 12.558594 8.824219 C 12.558594 9.132812 12.492188 9.335938 12.28125 9.570312 C 12.097656 9.761719 11.820312 9.890625 11.492188 9.890625 L 10.0625 9.890625 C 9.871094 9.890625 9.710938 10.0625 9.710938 10.253906 C 9.710938 10.445312 9.871094 10.605469 10.0625 10.605469 L 11.492188 10.605469 C 12.046875 10.605469 12.535156 10.382812 12.824219 10.039062 C 13.132812 9.699219 13.261719 9.335938 13.261719 8.824219 L 13.261719 8.121094 C 13.261719 7.523438 12.996094 7.011719 12.644531 6.722656 C 12.34375 6.476562 11.800781 6.339844 11.492188 6.339844 L 10.445312 6.339844 L 10.445312 4.207031 L 12.929688 4.207031 C 13.125 4.207031 13.285156 4.066406 13.285156 3.855469 Z M 13.285156 3.855469 "/>
</svg>
